chrome/icons/secure.svg

<svg height="16" viewBox="64 64 961 960" width="16" xmlns="http://www.w3.org/2000/svg" xmlns:xlink="http://www.w3.org/1999/xlink">
  <path d="M501.5,896C507.167,907.667 513.667,918.833 521,929.5C528.333,940.167 536.167,950.333 544.5,960L252,960C227,960 203.083,954.917 180.25,944.75C157.417,934.583 137.417,920.917 120.25,903.75C103.083,886.583 89.4167,866.583 79.25,843.75C69.0833,820.917 64,797 64,772L64,252C64,227 69.0833,203.083 79.25,180.25C89.4167,157.417 103.083,137.417 120.25,120.25C137.417,103.083 157.417,89.4167 180.25,79.25C203.083,69.0834 227,64.0001 252,64L772,64C797,64.0001 820.917,69.0834 843.75,79.25C866.583,89.4167 886.583,103.083 903.75,120.25C920.917,137.417 934.583,157.417 944.75,180.25C954.917,203.083 960,227 960,252L960,422.5C948.667,420.167 937.667,417.083 927,413.25C916.333,409.417 906,404.833 896,399.5L896,320L128,320L128,770.5C128,787.833 131.5,804.083 138.5,819.25C145.5,834.417 154.833,847.667 166.5,859C178.167,870.333 191.75,879.333 207.25,886C222.75,892.667 239,896 256,896ZM253.5,128C236.5,128 220.333,131.5 205,138.5C189.667,145.5 176.333,154.833 165,166.5C153.667,178.167 144.667,191.75 138,207.25C131.333,222.75 128,239 128,256L896,256L896,253.5C896,236.833 892.583,220.917 885.75,205.75C878.917,190.583 869.75,177.25 858.25,165.75C846.75,154.25 833.417,145.083 818.25,138.25C803.083,131.417 787.167,128 770.5,128ZM1024.5,697C1024.5,737 1018.5,774.167 1006.5,808.5C994.5,842.833 977.583,873.75 955.75,901.25C933.917,928.75 907.75,952.75 877.25,973.25C846.75,993.75 813,1010.17 776,1022.5C773.333,1023.5 770.667,1024 768,1024C765,1024 762.333,1023.5 760,1022.5C734.667,1013.5 710.833,1003.33 688.5,992C666.167,980.667 645.75,967.25 627.25,951.75C608.75,936.25 592.25,918.5 577.75,898.5C563.25,878.5 551.333,855.5 542,829.5C538.667,820.5 535.25,809.333 531.75,796C528.25,782.667 525,768.75 522,754.25C519,739.75 516.583,725.667 514.75,712C512.917,698.333 512,686.833 512,677.5L512,517.5C512,509.833 514.5,503.5 519.5,498.5C522.167,495.833 524.917,494 527.75,493C530.583,492 533.833,491.167 537.5,490.5C547.833,488.833 557.917,487.333 567.75,486C577.583,484.667 587.333,483.083 597,481.25C606.667,479.417 616.25,477.167 625.75,474.5C635.25,471.833 644.833,468.333 654.5,464C664.167,459.667 673.083,454.75 681.25,449.25C689.417,443.75 697.333,437.917 705,431.75C712.667,425.583 720.167,419.167 727.5,412.5C734.833,405.833 742.333,399 750,392C753,389.333 755.75,387.333 758.25,386C760.75,384.667 764,384 768,384C772,384 775.333,384.667 778,386C780.667,387.333 783.333,389.333 786,392C800.667,406.667 815.583,420.167 830.75,432.5C845.917,444.833 863,455.333 882,464C896.333,470.667 911.167,476.167 926.5,480.5C941.833,484.833 957.5,487.667 973.5,489C977.5,489.333 981.667,489.5 986,489.5C990.333,489.5 994.5,489.833 998.5,490.5C1004.17,491.167 1009.75,493.25 1015.25,496.75C1020.75,500.25 1023.5,505.333 1023.5,512C1023.5,543 1023.67,573.833 1024,604.5C1024.33,635.167 1024.5,666 1024.5,697Z" fill="context-fill" fill-opacity="context-fill-opacity">
  </path>
</svg>

<svg xmlns="http://www.w3.org/2000/svg" width="16" height="16" viewBox="64 64 961 960"><path fill="context-fill" fill-opacity="context-fill-opacity" d="M501.5 896a258 258 0 0 0 19.5 33.5 353 353 0 0 0 23.5 30.5H252q-37.5 0-71.75-15.25t-60-41-41-60T64 772V252q0-37.5 15.25-71.75t41-60 60-41T252 64h520q37.5 0 71.75 15.25t60 41 41 60T960 252v170.5a241 241 0 0 1-33-9.25 234 234 0 0 1-31-13.75V320H128v450.5q0 26 10.5 48.75t28 39.75 40.75 27T256 896Zm-248-768q-25.5 0-48.5 10.5t-40 28-27 40.75T128 256h768v-2.5q0-25-10.25-47.75t-27.5-40-40-27.5T770.5 128Zm771 569q0 60-18 111.5t-50.75 92.75-78.5 72c-30.5 20.5-64.25 36.92-101.25 49.25q-4 1.5-8 1.5-4.5 0-8-1.5c-25.333-9-49.167-19.17-71.5-30.5q-33.5-17-61.25-40.25t-49.5-53.25-35.75-69q-5-13.5-10.25-33.5T522 754.25 514.75 712 512 677.5v-160q0-11.5 7.5-19 4-4 8.25-5.5t9.75-2.5a1214 1214 0 0 1 30.25-4.5 563 563 0 0 0 29.25-4.75 342 342 0 0 0 28.75-6.75q14.25-4 28.75-10.5t26.75-14.75a348 348 0 0 0 23.75-17.5 490 490 0 0 0 22.5-19.25q11-10 22.5-20.5 4.5-4 8.25-6t9.75-2 10 2 8 6q22 22 44.75 40.5T882 464a296.5 296.5 0 0 0 44.5 16.5q23 6.5 47 8.5 6 .5 12.5.5t12.5 1c5.67.667 11.25 2.75 16.75 6.25q8.25 5.25 8.25 15.25c0 31 .17 61.833.5 92.5s.5 61.5.5 92.5"/></svg>
